X:1
T:Allegro in G major
T:Allegro
T:Dionisio Aguado
T:Aus der Encyclopédie pittoresque 1835
T:by IMSLP
C:Dionisio Aguado
Z:by IMSLP
%%score ( 1 2 3 )
L:1/8
M:2/4
K:G
V:1 treble-8 nm="Classical Guitar" snm="Guit."
V:2 treble-8 
V:3 treble-8 
V:1
 d | !4!b!4!a/g/ fe | d2 [GB][Bd] | [Ac][Ac]/[^GB]/ [Ac][ce] | [ce]2 [Bd] d | ba/g/ fe | d2 ^c2 | %7
 de/f/ g[G^c] | [Fd]2 z d | ba/g/ fe | d2 [GB][Bd] | [Ac][Ac]/[^GB]/ [Ac][ce] | [ce]2 [Bd] d | %13
 ba/g/ fe | d2 ^c2 | de/f/ g[G^c] | [Fd] z z2 | [fa]{/b}[fa]/[^e^g]/ [fa][=gb] | [fa]2 z2 | %19
 [fa]{/b}[fa]/[^e^g]/ [fa][=gb] | [fa]2 z2 | [ac']{/d'}[ac']/[^gb]/ [ac']{/[bd']}[c'e'] | %22
 [c'e']2 [bd'] z | f{/g}f/e/ f{/[Af]}[ca] | [Bf]2 z2 | [fa]{/b}[fa]/[^e^g]/ [fa][=gb] | [fa]2 z2 | %27
 [fa]{/b}[fa]/[^e^g]/ [fa][=gb] | [fa]2 z2 | [ac']{/d'}[ac']/[^gb]/ [ac']{[bd']}[c'e'] | %30
 [c'e']2 [bd'] z | f{/g}f/e/ f{/[Ag]}[ca] | [Bg]2 z2!fine! ||[K:C]"^IV" g>a g2- | %34
 g c'/b/ (3(d'c'a) | g>a g=f | f2 e z | ee/f/ e[Bd] | [Ac][^GB] AG | FA B2 | c3 z | g>a g2 | %42
 g c'/b/ (3d'c'a | g>a gf | f2 e z | ee/f/ e[Bd] | [Ac][^GB] AG | FA B2 | c3 z!D.C.! |] %49
V:2
 z | [GB]2 z !-(!!2!C | !-)!B, G,2 z | D4 | z G G z | [GB]2 z C | B,_B, A,G, | F,2 A,2 | D2 x2 | %9
 [GB]2 z C | B, G,2 z | D4 | z G G z | [GB]2 z C | B,_B, A,G, | F,2 A,2 | D x3 | D4 | z dD z | D4 | %20
 z{/^c} dD z | D4 | G3 z | D4 | GD G,2 | D4 | z{/^c} dD z | D4 | z{/^c} dD z | D4 | G3 z | c2 x2 | %32
 GD G,2 ||[K:C] [ce]3 [Bf] | [ce]2 z2 | [ce]3 B | c2 z2 | z2 z ^G, | A,B, C^C | D2 FG | EG E2 | %41
 [ce]3 [Bf] | [ce] z z2 | [ce]3 B | c3 z | z2 z ^G, | A,B, C^C | D2 FG | EG E2 |] %49
V:3
 x | x4 | x4 | x4 | x4 | x4 | x4 | x4 | x4 | x4 | x4 | x4 | x4 | x4 | x4 | x4 | x4 | x4 | x4 | x4 | %20
 x4 | x4 | x4 | x4 | x4 | x4 | x4 | x4 | x4 | x4 | x4 | D4 | x4 ||[K:C] x4 | x4 | x4 | x4 | x4 | %38
 x4 | x2 G,2 | C3 z | x4 | x4 | x4 | x4 | x4 | x4 | x2 G,2 | C3 z |] %49

